src/assets/selectIconsSpells/natura_2.svg

<svg xmlns="http://www.w3.org/2000/svg" viewBox="0 0 512 512"><path d="M0 0h512v512H0z"/><path fill="#fff" d="M18 494l36.35-330.4c6.728 107.62 4.086 231.82 35.556 295.67 11.205-84.926 15.707-168.18 10.562-249.01 15.225 71.69 35.543 141.68 39.468 217.14 7.395-55.935 12.667-111.52 31.798-169.41-.76 65.19-17.16 124.9 12.677 157.47 14.433-51.01 28.992-101.9 31.46-164.88 21.27 61.862 18.342 135.82 24.948 205.02 8.417-68.06 15.28-257.84 46.907-318.17-3.11 124.98-3.862 223.94 27.398 274.23 30.897-38.673 33.566-114.44 34.28-186.34 21.812 61.75 36.457 132.1 37.857 218.34 8.626-71.955 18.667-143.91 43.39-215.86-5.748 88.29-1.284 156.95 19.525 194.17 13.76-55.55 25.504-111.1 29.12-166.66 18.42 82.78 13 159.59 16.706 238.69z"/></svg>

<?xml version="1.0" encoding="UTF-8" standalone="no"?>
<!DOCTYPE svg PUBLIC "-//W3C//DTD SVG 1.1//EN" "http://www.w3.org/Graphics/SVG/1.1/DTD/svg11.dtd">
<svg width="100%" height="100%" viewBox="0 0 512 512" version="1.1" xmlns="http://www.w3.org/2000/svg" xmlns:xlink="http://www.w3.org/1999/xlink" xml:space="preserve" xmlns:serif="http://www.serif.com/" style="fill-rule:evenodd;clip-rule:evenodd;stroke-linejoin:round;stroke-miterlimit:2;">
    <rect x="0" y="0" width="512" height="512" style="fill-rule:nonzero;"/>
    <path d="M18,494L54.35,163.6C61.078,271.22 58.436,395.42 89.906,459.27C101.111,374.344 105.613,291.09 100.468,210.26C115.693,281.95 136.011,351.94 139.936,427.4C147.331,371.465 152.603,315.88 171.734,257.99C170.974,323.18 154.574,382.89 184.411,415.46C198.844,364.45 213.403,313.56 215.871,250.58C237.141,312.442 234.213,386.4 240.819,455.6C249.236,387.54 256.099,197.76 287.726,137.43C284.616,262.41 283.864,361.37 315.124,411.66C346.021,372.987 348.69,297.22 349.404,225.32C371.216,287.07 385.861,357.42 387.261,443.66C395.887,371.705 405.928,299.75 430.651,227.8C424.903,316.09 429.367,384.75 450.176,421.97C463.936,366.42 475.68,310.87 479.296,255.31C497.716,338.09 492.296,414.9 496.002,494L18,494Z" style="fill:rgb(178,221,104);fill-rule:nonzero;"/>
</svg>
